!! 00000] TT[00
!! NN
!!!OTL: Jiu shehui li xifu ku
!!!ARE: Asia, China,ˇNingxia, Yinchuan
!! Ethnic Group: Han
!! I, 182, 2)
!!!SCT: C0050
!!!YEM: Copyright 1995, estate of Helmut Schaffrath.
**kern
*ICvox
*Ivox
*M2/4
*k[f#c#]
*D:
{8ee
16ee
16ee
8ee
8dd
=1
2b}
=2
{8.a
16b
4ee
=3
4ee
8dd
8b
=4
8ee
8b
8ee
8b
=5
2a}
=6
{8b
4b
8ee
=7
4b
8a
8f#
=8
8a
16a
16a
8a
8f#
=9
2e}
==
!!!AGN: Shange, Xintianyou. FunÅ ku
!! 
!!!ONB: ESAC (Essen Associative Code) Database: CHINA
!!!AMT: simple duple
!!!AIN: vox
!!!EED: Helmut Schaffrath
!!!EEV: 1.0
*-
